X:1
T:Year of Jubilo, The
T:Year of Jubilo, The
T:Henry Clay Work
C:Henry Clay Work
L:1/8
M:2/4
K:C
V:1 treble 
V:1
 E | CE G>G | Ge e/d/c/A/ | GG c>E | D3 E/D/ | D3 E/D/ | CE G>G | Ge/e/ e/d/c/A/ | GB d>c | %9
 c3 c/B/ | AA A/B/c/A/ | G>A G/F/E/F/ | GE c>E | D3 E/D/ | CE G>G | Ge/e/ e/d/c/A/ | GB d>c | %17
 c3 c/B/ ||"^Chorus" A>B c>A | c3 A | G>A GE | G3 E/D/ | CE GG/c/ | ee/f/ e/d/c/A/ | GB d>c | %25
 (c2 c) || %26

